static/tk logo outline.svg

<svg xmlns="http://www.w3.org/2000/svg" width="567" height="933" fill="none" xmlns:v="https://vecta.io/nano"><path d="M192.761 138.804l4 8L252 257c7.976 14.344 11.129 25.07 17.5 47.5l-8.739 20.304-16.5 38.5c-6.884 12.689-11.607 19.123-21 30-13 16.5-23.492 37.674-23 39 5.49 14.781 5.043 22.653 0 36.196-42.768-35.713-20.761-91.696-8-129.196.209-15.096-4.36-29.154-20-58-10.924 1.149-16.282-1.998-20.5-17.5-18.834-6.579-29.983-6.993-50-7 2.157.359 1.968-.258 22.5 11 13.424 6.433 29.806 25.977 27.5 56.5-2.741 19.226-25.149 43.486-55.5 59.5 3.905.586 10.5-.5 10 1.5-19.127 13.823-31.86 20.414-54 32.5-43.5 33.5-53.343 61.166-49.5 111.5 2.693 21.262 7.48 36.88 14.5 51 6 12.786 15.66 24.679 19.5 41 .624-13.829 1.447-17.273 3.5-18 6.057 24.938 18.832 35.56 50 51.5 33.776 18.994 49.098 29.508 70.5 53.5-1.863-12.226-3.361-18.577-7.5-31 57 79 63 157 8 253 68.866-59.73 108.079-88.692 171-125 5.274-6.649 5.296-10.241 2-16.5-41.962-33.397-58.516-50.376-82-81-20.527-32.938-32.218-52.319-51.5-79 31.131 9.763 47.137 26.512 74 69.5l15.5-11c-7.888-16.082-11.423-23.808-15.5-34.304l41.739-10.5c8.222 17.627 12.091 29.64 18.5 52.5 17.95-1.915 25.822-.812 39 2l-7.239-32.196h17.5c20.261 18.971 32.62 27.885 56 41.5 11.671-29.094 34.5-47.5 68-61l9.25-6.5c-4.586-1.856-40.145-26.427 9.25-6.5l18.5-20.5c-46-34.5-15-63.5 12-23 8.315-20.381 9.156-35.007 6-65l-4-11-16-48.5-19-4.5-8.5-33c7.751.109 12.711 3.654 22 12.5-19.361-75.501-52.313-89.253-109.5-79 .286 2.99 1.839 4.752 6.5 8 7.833.5 25.1 4.8 31.5 18 3.833 7.167 10.9 25.3 8.5 40.5-1 4.334-4.1 13.9-8.5 17.5-.986-2.182-1.708 23.213-36 20s-53.633-59.385-18.5-87.5l4.5-16.5c-1.761-9.804-15.261-56.804-23-63-2.135-5.158-4.515-8.21 1.239-12.304 6.609 0-57.152-81.529-90.239-121.196-27.2-36.8-18.667-74.333-11-88.5 18.8-48.8 58.833-61.333 76.5-61.5-14.8-11.6-36.5-12.5-45.5-11.5-34.8 2.8-62.167 20.5-71.5 29-33.2 22.4-53.833 81-60 107.5z" stroke="#fff" stroke-width="4" stroke-linejoin="round"/></svg>

<svg width="567" height="933" viewBox="0 0 567 933" fill="none" xmlns="http://www.w3.org/2000/svg">
<path d="M192.761 138.804L196.761 146.804L252 257C259.976 271.344 263.129 282.07 269.5 304.5L260.761 324.804L244.261 363.304C237.377 375.993 232.654 382.427 223.261 393.304C210.261 409.804 199.769 430.978 200.261 432.304C205.751 447.085 205.304 454.957 200.261 468.5C157.493 432.787 179.5 376.804 192.261 339.304C192.47 324.208 187.901 310.15 172.261 281.304C161.337 282.453 155.979 279.306 151.761 263.804C132.927 257.225 121.778 256.811 101.761 256.804C103.918 257.163 103.729 256.546 124.261 267.804C137.685 274.237 154.067 293.781 151.761 324.304C149.02 343.53 126.612 367.79 96.261 383.804C100.166 384.39 106.761 383.304 106.261 385.304C87.1344 399.127 74.4005 405.718 52.2611 417.804C8.76099 451.304 -1.08181 478.97 2.76114 529.304C5.45411 550.566 10.2411 566.184 17.2611 580.304C23.2611 593.09 32.921 604.983 36.7611 621.304C37.3854 607.475 38.2077 604.031 40.2611 603.304C46.3183 628.242 59.0931 638.864 90.2611 654.804C124.037 673.798 139.359 684.312 160.761 708.304C158.898 696.078 157.4 689.727 153.261 677.304C210.261 756.304 216.261 834.304 161.261 930.304C230.127 870.574 269.34 841.612 332.261 805.304C337.535 798.655 337.557 795.063 334.261 788.804C292.299 755.407 275.745 738.428 252.261 707.804C231.734 674.866 220.043 655.485 200.761 628.804C231.892 638.567 247.898 655.316 274.761 698.304L290.261 687.304C282.373 671.222 278.838 663.496 274.761 653C299.338 647.073 305.724 645.382 316.5 642.5C324.722 660.127 328.591 672.14 335 695C352.95 693.085 360.822 694.188 374 697L366.761 664.804H384.261C404.522 683.775 416.881 692.689 440.261 706.304C451.932 677.21 474.761 658.804 508.261 645.304L517.511 638.804C512.925 636.948 477.366 612.377 526.761 632.304L545.261 611.804C499.261 577.304 530.261 548.304 557.261 588.804C565.576 568.423 566.417 553.797 563.261 523.804L559.261 512.804L543.261 464.304L524.261 459.804L515.761 426.804C523.512 426.913 528.472 430.458 537.761 439.304C518.4 363.803 485.448 350.051 428.261 360.304C428.547 363.294 430.1 365.056 434.761 368.304C442.594 368.804 459.861 373.104 466.261 386.304C470.094 393.471 477.161 411.604 474.761 426.804C473.761 431.138 470.661 440.704 466.261 444.304C465.275 442.122 464.553 467.517 430.261 464.304C395.969 461.092 376.628 404.919 411.761 376.804L416.261 360.304C414.5 350.5 401 303.5 393.261 297.304C391.126 292.146 388.746 289.094 394.5 285C401.109 285 337.348 203.471 304.261 163.804C277.061 127.004 285.594 89.4709 293.261 75.3042C312.061 26.5042 352.094 13.9709 369.761 13.8042C354.961 2.2042 333.261 1.3042 324.261 2.3042C289.461 5.1042 262.094 22.8042 252.761 31.3042C219.561 53.7042 198.928 112.304 192.761 138.804Z" stroke="white" stroke-width="4" stroke-linejoin="round"/>
</svg>
